X:31
T:O Charlie Is My Darling
C:arr. Carlo Minasi
M:C
L:1/8
B:Chappell's One Hundred Scotch Melodies
B:Arranged for the Concertina by Carlo Minasi
Q:"Andante  "1/4=120
Z:Peter Dunk 2012
K:Eb
!p!E2|(C>DE>F) ([G2E2C2] c)z/G/|([A2F2C2] c)z/A/ ([G2E2C2] c)z/E/|\
(C>DE>F) (G2 c)z/d/|(e2[dF]>[cE]) [c2E2]||
!mf!c2|([=BF]>G=A>B) ([cE]>de>c)|([=BF]>G=A>B) [c2E2]zd|\
([eBG]>de>[cA]) ([BG]>GE) (F/G/)|(AFG>E) D3 !mf!z/ E/|
(C>DE>F) ([G2E2C2]c)z/G/|([A2F2C2] c)z/A/ ([G2E2C2] c)z/E/|\
(C>DE>"_cres."F) (G2 c)z/d/!f!|e2[dF]>[cE] [c2E2]||

